assets/img/star-icon.svg

<svg width="18" height="17" viewBox="0 0 18 17" fill="none" xmlns="http://www.w3.org/2000/svg">
<path d="M16.7209 7.57316L13.2729 10.5484L14.3234 14.9978C14.3813 15.2393 14.3664 15.4926 14.2805 15.7257C14.1946 15.9587 14.0415 16.1611 13.8406 16.3072C13.6397 16.4533 13.4001 16.5366 13.1519 16.5466C12.9037 16.5565 12.6581 16.4927 12.4462 16.3632L8.57677 13.9818L4.70508 16.3632C4.49317 16.492 4.24789 16.5552 4.00012 16.5449C3.75235 16.5345 3.51318 16.4511 3.31272 16.3051C3.11226 16.1592 2.95948 15.9571 2.87361 15.7245C2.78773 15.4918 2.77262 15.239 2.83016 14.9978L3.88447 10.5484L0.436503 7.57316C0.249009 7.41111 0.113409 7.19742 0.0466396 6.95877C-0.0201302 6.72011 -0.0151113 6.46708 0.0610694 6.23126C0.13725 5.99545 0.281216 5.7873 0.474989 5.63281C0.668762 5.47833 0.903753 5.38436 1.15062 5.36263L5.67128 4.99791L7.41518 0.777601C7.50958 0.547597 7.67024 0.350857 7.87673 0.212394C8.08323 0.0739312 8.32623 0 8.57485 0C8.82347 0 9.06648 0.0739312 9.27297 0.212394C9.47947 0.350857 9.64012 0.547597 9.73452 0.777601L11.4777 4.99791L15.9983 5.36263C16.2457 5.38355 16.4814 5.477 16.6758 5.63127C16.8703 5.78554 17.0149 5.99377 17.0916 6.22987C17.1682 6.46598 17.1735 6.71945 17.1068 6.95854C17.04 7.19763 16.9042 7.4117 16.7163 7.57393L16.7209 7.57316Z" fill="#FFAB5C" style="fill:#FFAB5C;fill:color(display-p3 1.0000 0.6700 0.3614);fill-opacity:1;"/>
</svg>

<svg xmlns="http://www.w3.org/2000/svg" width="18" height="17" fill="none"><path fill="#FFAB5C" d="m16.72 7.573-3.447 2.975 1.05 4.45a1.257 1.257 0 0 1-1.877 1.365l-3.87-2.381-3.87 2.381a1.257 1.257 0 0 1-1.876-1.365l1.054-4.45L.437 7.573a1.261 1.261 0 0 1 .714-2.21l4.52-.365L7.415.778a1.254 1.254 0 0 1 2.32 0l1.743 4.22 4.52.365a1.26 1.26 0 0 1 .718 2.21z" style="fill:#ffab5c;fill:color(display-p3 1 .67 .3614);fill-opacity:1"/></svg>
